Newaita/actions/22/debug-run-cursor.svg

<svg height="22" viewBox="0 0 22 22" width="22" xmlns="http://www.w3.org/2000/svg"><g fill="#424242"><path d="m11.371094 10.175781v1.820313h-5.445313c-.253906 0-.457031-.203125-.457031-.453125v-.910157c0-.253906.203125-.457031.457031-.457031zm0 0"/><path d="m10.003906 14.269531v-6.367187l4.550782 3.183594zm0 0"/><path d="m15.007812 1.992188h4.546876c.253906 0 .457031.203124.457031.453124s-.203125.457032-.457031.457032h-4.546876c-.25 0-.453124-.207032-.453124-.457032s.203124-.453124.453124-.453124zm0 0"/><path d="m17.28125 1.992188c.503906 0 .910156.40625.910156.910156v16.371094c0 .503906-.40625.910156-.910156.910156-.5 0-.910156-.40625-.910156-.910156v-16.371094c0-.503906.410156-.910156.910156-.910156zm0 0"/><path d="m15.007812 19.273438h4.546876c.253906 0 .457031.203124.457031.453124 0 .253907-.203125.457032-.457031.457032h-4.546876c-.25 0-.453124-.203125-.453124-.457032 0-.25.203124-.453124.453124-.453124zm0 0"/></g></svg>

<?xml version="1.0" encoding="UTF-8"?>
<svg xmlns="http://www.w3.org/2000/svg" xmlns:xlink="http://www.w3.org/1999/xlink" width="22px" height="22px" viewBox="0 0 22 22" version="1.1">
<g id="surface1">
<path style=" stroke:none;fill-rule:nonzero;fill:rgb(25.882354%,25.882354%,25.882354%);fill-opacity:1;" d="M 11.371094 10.175781 L 11.371094 11.996094 L 5.925781 11.996094 C 5.671875 11.996094 5.46875 11.792969 5.46875 11.542969 L 5.46875 10.632812 C 5.46875 10.378906 5.671875 10.175781 5.925781 10.175781 Z M 11.371094 10.175781 "/>
<path style=" stroke:none;fill-rule:nonzero;fill:rgb(25.882354%,25.882354%,25.882354%);fill-opacity:1;" d="M 10.003906 14.269531 L 10.003906 7.902344 L 14.554688 11.085938 Z M 10.003906 14.269531 "/>
<path style=" stroke:none;fill-rule:nonzero;fill:rgb(25.882354%,25.882354%,25.882354%);fill-opacity:1;" d="M 15.007812 1.992188 L 19.554688 1.992188 C 19.808594 1.992188 20.011719 2.195312 20.011719 2.445312 C 20.011719 2.695312 19.808594 2.902344 19.554688 2.902344 L 15.007812 2.902344 C 14.757812 2.902344 14.554688 2.695312 14.554688 2.445312 C 14.554688 2.195312 14.757812 1.992188 15.007812 1.992188 Z M 15.007812 1.992188 "/>
<path style=" stroke:none;fill-rule:nonzero;fill:rgb(25.882354%,25.882354%,25.882354%);fill-opacity:1;" d="M 17.28125 1.992188 C 17.785156 1.992188 18.191406 2.398438 18.191406 2.902344 L 18.191406 19.273438 C 18.191406 19.777344 17.785156 20.183594 17.28125 20.183594 C 16.78125 20.183594 16.371094 19.777344 16.371094 19.273438 L 16.371094 2.902344 C 16.371094 2.398438 16.78125 1.992188 17.28125 1.992188 Z M 17.28125 1.992188 "/>
<path style=" stroke:none;fill-rule:nonzero;fill:rgb(25.882354%,25.882354%,25.882354%);fill-opacity:1;" d="M 15.007812 19.273438 L 19.554688 19.273438 C 19.808594 19.273438 20.011719 19.476562 20.011719 19.726562 C 20.011719 19.980469 19.808594 20.183594 19.554688 20.183594 L 15.007812 20.183594 C 14.757812 20.183594 14.554688 19.980469 14.554688 19.726562 C 14.554688 19.476562 14.757812 19.273438 15.007812 19.273438 Z M 15.007812 19.273438 "/>
</g>
</svg>
